X:1
T: The Absent-minded Woman
C:
R:Reel
I:speed 232
Q:232
K:G
M:4/4
L:1/8
|:G2GA B GBd|e dgd e dBA|G 2GA B ABd|((3efg) dB AG EF|
G2 GA BG Bd|ed gd e2 dB|de ga ba ge|d2 BG AG G2|
g2 bg ag bg|g2 bg ag ed|g2 bg ag bg|fe dB AG ED|
g2 bg ag bg|g2 bg ag ed|bg af ge dB|cA BG AG G2:|
